images/waste_disposal.svg

<svg xmlns="http://www.w3.org/2000/svg" height="14" width="14">
    <path d="M6 1v1H3v1h8V2H8V1H6zM3 5l1 9h6l1-9H3zm2 1h1v7H5V6zm3 0h1v7H8V6z" opacity=".5" fill="none" stroke="#fff" stroke-width="3" stroke-linecap="round" stroke-linejoin="round"/>
    <path d="M6 1v1H3v1h8V2H8V1H6zM3 5l1 9h6l1-9H3zm2 1h1v7H5V6zm3 0h1v7H8V6z"/>
</svg>

<?xml version="1.0" encoding="UTF-8" standalone="no"?>
<svg xmlns:dc="http://purl.org/dc/elements/1.1/" xmlns:cc="http://creativecommons.org/ns#" xmlns:rdf="http://www.w3.org/1999/02/22-rdf-syntax-ns#" xmlns:svg="http://www.w3.org/2000/svg" xmlns="http://www.w3.org/2000/svg" xmlns:sodipodi="http://sodipodi.sourceforge.net/DTD/sodipodi-0.dtd" xmlns:inkscape="http://www.inkscape.org/namespaces/inkscape" viewBox="0 0 14 14" height="14" width="14" id="svg10" version="1.1" sodipodi:docname="waste_disposal.svg" inkscape:version="0.92.4 (5da689c313, 2019-01-14)">
  <sodipodi:namedview pagecolor="#ffffff" bordercolor="#666666" borderopacity="1" objecttolerance="10" gridtolerance="10" guidetolerance="10" inkscape:pageopacity="0" inkscape:pageshadow="2" inkscape:window-width="1881" inkscape:window-height="1051" id="namedview2091" showgrid="false" inkscape:pagecheckerboard="true" inkscape:zoom="16.857143" inkscape:cx="7" inkscape:cy="7" inkscape:window-x="0" inkscape:window-y="0" inkscape:window-maximized="1" inkscape:current-layer="svg10" />
  <metadata id="metadata16">
    <rdf:RDF>
      <cc:Work rdf:about="">
        <dc:format>image/svg+xml</dc:format>
        <dc:type rdf:resource="http://purl.org/dc/dcmitype/StillImage" />
        <dc:title></dc:title>
      </cc:Work>
    </rdf:RDF>
  </metadata>
  <defs id="defs14" />
  <path style="opacity:0.5;fill:none;fill-opacity:1;fill-rule:nonzero;stroke:#ffffff;stroke-opacity:1;stroke-width:3;stroke-miterlimit:4;stroke-dasharray:none;stroke-linecap:round;stroke-linejoin:round" d="M 6 1 L 6 2 L 3 2 L 3 3 L 11 3 L 11 2 L 8 2 L 8 1 L 6 1 z M 3 5 L 4 14 L 10 14 L 11 5 L 3 5 z M 5 6 L 6 6 L 6 13 L 5 13 L 5 6 z M 8 6 L 9 6 L 9 13 L 8 13 L 8 6 z " id="path2636" />
  <path id="path817" d="M 6 1 L 6 2 L 3 2 L 3 3 L 11 3 L 11 2 L 8 2 L 8 1 L 6 1 z M 3 5 L 4 14 L 10 14 L 11 5 L 3 5 z M 5 6 L 6 6 L 6 13 L 5 13 L 5 6 z M 8 6 L 9 6 L 9 13 L 8 13 L 8 6 z " style="opacity:1;fill:#000000;fill-opacity:1;fill-rule:nonzero;stroke:none;stroke-opacity:1" />
</svg>
